X:1
T:Old King Cole
M:4/4
L:1/4
K:F
 F F D C/2C/2| F/2F/2 F D C/2C/2| F/2F/2 G A B| c3 c| d d/2d/2 B d/2d/2|\
 c c/2c/2 A c/2c/2| B A/2A/2 G C| F3 z| F F F F| F F/2F/2 D C| F2 F2|\
 F F/2F/2 D C| F G A B| c3 c| d c B d| c B A c/2c/2| B A G3/2 F/2|\
 F3 z|
